X:1
T:LeDroit Park, 87.87 D
T:LeDroit Park, 87.87 D
T:Phoebe Palmer Knapp, 1885
T:Public Domain Courtesy of the Cyber Hymnal™
C:Phoebe Palmer Knapp, 1885
Z:Public Domain
Z:Courtesy of the Cyber Hymnal™
%%score ( 1 2 ) ( 3 4 )
L:1/8
Q:1/4=93
M:none
K:Eb
V:1 treble 
V:2 treble 
V:3 bass 
V:4 bass 
V:1
 (3(B=A)[EB] | [Ec]2 [EB]2 (3(ed)c | [EB]2 [EG]2 [B,E]>[DF] | [EG]3 [EB] [Ec]>[EB] | %4
 [DF]4 (3(B=A)[EB] | [Ec]2 [EB]2 (3(ed)[Ec] | [EB]2 [EG]2 [EB]>[Ec] | [Gd]3 [DG] [^FB]>[F=A] | %8
 G4 [FA]>[=EG] | [FA]2 [DF]2 [GB]>[^F=A] | [GB]2 [EG]2 [FB]>[Fc] | [Fd]3 [Ff] [Fe]>[=Ac] | %12
 B4 [Ge]>[GB] | [EG]2 [EG]2 [GB]>[EG] | [B,E]2 !fermata![CE]2 [B,E]>E | [CF]3 C [B,D]>[A,F] | %16
 [B,E]4 |] %17
V:2
 E2 | x4 E2 | x6 | x6 | x4 E2 | x4 E2 | x6 | x6 | G4 x2 | x6 | x6 | x6 | B4 x2 | x6 | x11/2 E/ | %15
 x3 C x2 | x4 |] %17
V:3
 (3(G,^F,)[E,G,] | [E,A,]2 [E,G,]2 (3(CB,)[E,A,] | [E,G,]2 [E,B,]2 [E,G,]>[B,,B,] | %3
 [E,B,]3 [G,B,] A,>[G,B,] | B,4 (3(G,^F,)[E,G,] | [E,A,]2 [E,G,]2 (3(CB,)[E,A,] | %6
 [E,G,]2 [E,B,]2 [G,B,]>[E,G,] | [D,B,]3 [D,B,] [D,C]>[D,C] | [G,B,]4 [B,,B,]>[B,,B,] | %9
 B,2 B,2 [E,B,]>[E,C] | [E,B,]2 [E,B,]2 [D,B,]>[F,=A,] | B,3 [F,D] [F,=A,]>[F,E] | %12
 [B,D]4 [E,B,]>[E,B,] | [E,B,]2 [E,B,]2 [E,E]>[E,B,] | [E,G,]2 !fermata![C,G,]2 [G,,G,]>[G,,B,] | %15
 [A,,A,]3 [A,,F,] [B,,F,]>[B,,A,] | [E,G,]4 |] %17
V:4
 E,2 | x4 E,2 | x6 | x4 A,3/2 x/ | B,4 E,2 | x4 E,2 | x6 | x6 | x6 | B,2 B,2 x2 | x6 | B,3 x3 | %12
 x6 | x6 | x6 | x6 | x4 |] %17

